resources/haticons/SVG/workspaces_filled.svg

<!-- Generated by IcoMoon.io -->
<svg version="1.1" xmlns="http://www.w3.org/2000/svg" width="24" height="24" viewBox="0 0 24 24">
<title>workspaces_filled</title>
<path d="M18 12.984q1.641 0 2.813 1.195t1.172 2.836-1.172 2.813-2.813 1.172-2.813-1.172-1.172-2.813 1.172-2.836 2.813-1.195zM12 3q1.641 0 2.813 1.172t1.172 2.813-1.172 2.836-2.813 1.195-2.813-1.195-1.172-2.836 1.172-2.813 2.813-1.172zM6 12.984q1.641 0 2.813 1.195t1.172 2.836-1.172 2.813-2.813 1.172-2.813-1.172-1.172-2.813 1.172-2.836 2.813-1.195z"></path>
</svg>

<svg xmlns="http://www.w3.org/2000/svg" width="24" height="24"><path d="M18 12.984q1.641 0 2.813 1.195t1.172 2.836-1.172 2.813T18 21t-2.813-1.172-1.172-2.813 1.172-2.836T18 12.984zM12 3q1.641 0 2.813 1.172t1.172 2.813-1.172 2.836T12 11.016 9.187 9.821 8.015 6.985t1.172-2.813T12 3zm-6 9.984q1.641 0 2.813 1.195t1.172 2.836-1.172 2.813T6 21t-2.813-1.172-1.172-2.813 1.172-2.836T6 12.984z"/></svg>
